bundles/org.openhab.ui.habpanel/web/assets/icons/smarthome-set/solar-panel.svg

<?xml version="1.0" encoding="UTF-8" standalone="no"?>
<svg width="32px" height="32px" viewBox="0 0 32 32" version="1.1" xmlns="http://www.w3.org/2000/svg" xmlns:xlink="http://www.w3.org/1999/xlink" xmlns:sketch="http://www.bohemiancoding.com/sketch/ns">
    <!-- Generator: Sketch 3.3.2 (12043) - http://www.bohemiancoding.com/sketch -->
    <title>solar panel</title>
    <desc>Created with Sketch.</desc>
    <defs></defs>
    <g id="flatten" stroke="none" stroke-width="1" fill="none" fill-rule="evenodd" sketch:type="MSPage">
        <g id="z-copy" sketch:type="MSArtboardGroup" transform="translate(-68.000000, -228.000000)" fill="#000000">
            <g id="solar-panel" sketch:type="MSLayerGroup" transform="translate(68.000000, 228.000000)">
                <path d="M13,27 L13,22 L13,22 L2,22 L2,27 L13,27 L13,27 Z M13,28 L13,28.9972399 C13,29.5523701 12.5528524,30 11.9972399,30 L3.00276013,30 C2.44762988,30 2,29.5528524 2,28.9972399 L2,28 L13,28 L13,28 Z M13,21 L13,20.0027601 C13,19.4471476 12.5523701,19 11.9972399,19 L3.00276013,19 C2.44714764,19 2,19.4476299 2,20.0027601 L2,21 L13,21 L13,21 L13,21 Z M30,27 L30,22 L30,22 L19,22 L19,27 L30,27 L30,27 Z M30,28 L30,28.9972399 C30,29.5523701 29.5528524,30 28.9972399,30 L20.0027601,30 C19.4476299,30 19,29.5528524 19,28.9972399 L19,28 L30,28 L30,28 L30,28 Z M30,21 L30,20.0027601 C30,19.4471476 29.5523701,19 28.9972399,19 L20.0027601,19 C19.4471476,19 19,19.4476299 19,20.0027601 L19,21 L30,21 L30,21 L30,21 Z M30,10 L30,5 L30,5 L19,5 L19,10 L30,10 L30,10 Z M30,11 L30,11.9972399 C30,12.5523701 29.5528524,13 28.9972399,13 L20.0027601,13 C19.4476299,13 19,12.5528524 19,11.9972399 L19,11 L30,11 L30,11 L30,11 Z M30,4 L30,3.00276013 C30,2.44714764 29.5523701,2 28.9972399,2 L20.0027601,2 C19.4471476,2 19,2.44762988 19,3.00276013 L19,4 L30,4 L30,4 L30,4 Z M13,10 L13,5 L13,5 L2,5 L2,10 L13,10 L13,10 Z M13,11 L13,11.9972399 C13,12.5523701 12.5528524,13 11.9972399,13 L3.00276013,13 C2.44762988,13 2,12.5528524 2,11.9972399 L2,11 L13,11 L13,11 L13,11 Z M13,4 L13,3.00276013 C13,2.44714764 12.5523701,2 11.9972399,2 L3.00276013,2 C2.44714764,2 2,2.44762988 2,3.00276013 L2,4 L13,4 L13,4 L13,4 Z M0,3.00276013 L0,11.9972399 C0,13.6579047 1.34354269,15 3.00276013,15 L11.9972399,15 C13.6579047,15 15,13.6564573 15,11.9972399 L15,3.00276013 C15,1.34209526 13.6564573,0 11.9972399,0 L3.00276013,0 C1.34209526,0 0,1.34354269 0,3.00276013 L0,3.00276013 Z M0,20.0027601 L0,28.9972399 C0,30.6579047 1.34354269,32 3.00276013,32 L11.9972399,32 C13.6579047,32 15,30.6564573 15,28.9972399 L15,20.0027601 C15,18.3420953 13.6564573,17 11.9972399,17 L3.00276013,17 C1.34209526,17 0,18.3435427 0,20.0027601 L0,20.0027601 Z M17,3.00276013 L17,11.9972399 C17,13.6579047 18.3435427,15 20.0027601,15 L28.9972399,15 C30.6579047,15 32,13.6564573 32,11.9972399 L32,3.00276013 C32,1.34209526 30.6564573,0 28.9972399,0 L20.0027601,0 C18.3420953,0 17,1.34354269 17,3.00276013 L17,3.00276013 Z M17,20.0027601 L17,28.9972399 C17,30.6579047 18.3435427,32 20.0027601,32 L28.9972399,32 C30.6579047,32 32,30.6564573 32,28.9972399 L32,20.0027601 C32,18.3420953 30.6564573,17 28.9972399,17 L20.0027601,17 C18.3420953,17 17,18.3435427 17,20.0027601 L17,20.0027601 Z" sketch:type="MSShapeGroup"></path>
            </g>
        </g>
    </g>
</svg>

<svg width="32" height="32" xmlns="http://www.w3.org/2000/svg"><path d="M13 27v-5H2v5h11Zm0 1v.997A1 1 0 0 1 11.997 30H3.003A1 1 0 0 1 2 28.997V28h11Zm0-7v-.997A1 1 0 0 0 11.997 19H3.003A1 1 0 0 0 2 20.003V21h11Zm17 6v-5H19v5h11Zm0 1v.997A1 1 0 0 1 28.997 30h-8.994A1 1 0 0 1 19 28.997V28h11Zm0-7v-.997A1 1 0 0 0 28.997 19h-8.994A1 1 0 0 0 19 20.003V21h11Zm0-11V5H19v5h11Zm0 1v.997A1 1 0 0 1 28.997 13h-8.994A1 1 0 0 1 19 11.997V11h11Zm0-7v-.997A1 1 0 0 0 28.997 2h-8.994A1 1 0 0 0 19 3.003V4h11Zm-17 6V5H2v5h11Zm0 1v.997A1 1 0 0 1 11.997 13H3.003A1 1 0 0 1 2 11.997V11h11Zm0-7v-.997A1 1 0 0 0 11.997 2H3.003A1 1 0 0 0 2 3.003V4h11ZM0 3.003v8.994A3 3 0 0 0 3.003 15h8.994A3 3 0 0 0 15 11.997V3.003A3 3 0 0 0 11.997 0H3.003A3 3 0 0 0 0 3.003Zm0 17v8.994A3 3 0 0 0 3.003 32h8.994A3 3 0 0 0 15 28.997v-8.994A3 3 0 0 0 11.997 17H3.003A3 3 0 0 0 0 20.003Zm17-17v8.994A3 3 0 0 0 20.003 15h8.994A3 3 0 0 0 32 11.997V3.003A3 3 0 0 0 28.997 0h-8.994A3 3 0 0 0 17 3.003Zm0 17v8.994A3 3 0 0 0 20.003 32h8.994A3 3 0 0 0 32 28.997v-8.994A3 3 0 0 0 28.997 17h-8.994A3 3 0 0 0 17 20.003Z" fill="#000" fill-rule="evenodd"/></svg>
